public/svg_assets/socials_icons/unknown.svg

<svg width="65" height="66" viewBox="0 0 65 66" fill="none" xmlns="http://www.w3.org/2000/svg">
<path d="M32.5 66C50.4492 66 65 51.2254 65 33C65 14.7746 50.4492 0 32.5 0C14.5507 0 0 14.7746 0 33C0 51.2254 14.5507 66 32.5 66Z" fill="#A1A1A1"/>
<path d="M31.373 37.0995L31.2082 29.6156H32.6499C33.4462 29.6156 34.1327 29.4857 34.7094 29.2258C35.3135 28.94 35.7803 28.5372 36.1098 28.0175C36.4394 27.4978 36.6041 26.9001 36.6041 26.2245C36.6041 25.5488 36.4394 24.9642 36.1098 24.4704C35.8078 23.9767 35.3684 23.5999 34.7918 23.3401C34.2151 23.0542 33.5286 22.9113 32.7323 22.9113C31.6339 22.9113 30.6453 23.2101 29.7666 23.8078C28.8879 24.3795 28.1876 25.198 27.6659 26.2634L24 23.2231C24.8238 21.586 26.0046 20.3127 27.5423 19.4032C29.1076 18.4677 30.9336 18 33.0206 18C34.778 18 36.3295 18.3508 37.6751 19.0524C39.0481 19.728 40.1053 20.6635 40.8467 21.8589C41.6156 23.0282 42 24.3665 42 25.8737C42 27.3289 41.6705 28.6022 41.0114 29.6935C40.3524 30.7849 39.4462 31.6815 38.2929 32.3831C37.1396 33.0847 35.794 33.5784 34.2563 33.8642L36.1922 31.7594L35.8215 37.0995H31.373ZM33.5561 47C32.595 47 31.7849 46.6882 31.1259 46.0645C30.4943 45.4409 30.1785 44.6743 30.1785 43.7648C30.1785 42.8553 30.4943 42.0887 31.1259 41.4651C31.7849 40.8414 32.595 40.5296 33.5561 40.5296C34.5446 40.5296 35.3547 40.8414 35.9863 41.4651C36.6178 42.0887 36.9336 42.8553 36.9336 43.7648C36.9336 44.6743 36.6178 45.4409 35.9863 46.0645C35.3547 46.6882 34.5446 47 33.5561 47Z" fill="white"/>
</svg>

<svg width="65" height="66" fill="none" xmlns="http://www.w3.org/2000/svg">
    <path d="M32.5 66C50.45 66 65 51.225 65 33S50.45 0 32.5 0 0 14.775 0 33s14.55 33 32.5 33Z" fill="#A1A1A1"/>
    <path d="m31.373 37.1-.165-7.484h1.442c.796 0 1.483-.13 2.06-.39.603-.286 1.07-.689 1.4-1.209.33-.52.494-1.117.494-1.793 0-.675-.165-1.26-.494-1.754-.302-.493-.742-.87-1.318-1.13-.577-.286-1.263-.429-2.06-.429-1.098 0-2.087.3-2.965.897-.88.572-1.58 1.39-2.101 2.455L24 23.223c.824-1.637 2.005-2.91 3.542-3.82C29.108 18.468 30.934 18 33.021 18c1.757 0 3.309.35 4.654 1.052 1.373.676 2.43 1.611 3.172 2.807.769 1.17 1.153 2.507 1.153 4.015 0 1.455-.33 2.728-.989 3.82-.659 1.09-1.565 1.988-2.718 2.69-1.153.7-2.499 1.194-4.037 1.48l1.936-2.105-.37 5.34h-4.449Zm2.183 9.9c-.961 0-1.771-.312-2.43-.935-.632-.624-.948-1.39-.948-2.3 0-.91.316-1.676.948-2.3.659-.624 1.469-.935 2.43-.935.989 0 1.799.311 2.43.935.632.624.948 1.39.948 2.3 0 .91-.316 1.676-.948 2.3-.631.623-1.441.935-2.43.935Z" fill="#fff"/>
</svg>
